X:1
T:Title
%%score { ( 1 3 ) | ( 2 4 ) }
L:1/8
M:4/4
K:C
V:1 treble nm="Grand Piano"
V:3 treble 
V:2 bass 
V:4 bass 
V:1
 z4 z2[Q:1/4=100] G2 | [Ec]3 [Ec] [EG]3 [EG] | A2 B2 [Ec]2 [Gd]2 | [Ge]2 [CGc]2 [CFA]2 [FAd]2 | %4
 [Ec]4 B2 G2 | [Ec]3 [Ec] [Ec]2 [Gc]2 | [Ac]2 [GB]A [CEG]2 [EAc]2 | [GB]3 [GB] [^Fd]2 AB | G6 G2 | %9
 G3 G A2 G2 | [EG]2 [EG]A [CEG]2 [CEG]2 | [CFA]3 [CFA] [DAd]2 [DAc]2 | [DGB]6 G2 | %13
 [Ge]3 [Gd] [Gc]2 [EG]2 | [FA]2 [Af]2 [Ae]2 [Ad]2 | c3 c d2 [DFB]2 |[M:3/4] [Ec]6 |[M:1/4] z G | %18
[M:4/4] c3 G E3 C | E2 G2 c3 d | [Ge]2 .[EAd]2 [DGB]2 [C^FA]2 | [B,G]6 [B,G]2 | %22
 [Ge]3 [Gd] [Gc]2 [EG]2 | [FA]2 [Af]2 [Ae]2 [Ad]2 | c3 c d2 [DFB]2 |[M:7/4] [Ec]6 z2 z2 z4 |] %26
V:2
 z4 z2 G,2 | [C,G,]3 [C,G,] [C,C]3 [C,C] | [F,CF]2 [G,F]2[K:bass] [C,C]2 [G,B,]2 | C2 E,2 F,2 D,2 | %4
 z4 D2 G,2 | [C,G,]3 [C,G,] [C,G,]2 [E,C]2 | z2 [F,C]2 z4 | [D,D]3 [D,D] [D,C]2 [D,C]2 | %8
 [G,B,]6 [G,B,]2 | [G,B,F]3 [G,B,F] [G,CF]2 [G,B,F]2 | [C,C]2 z F C,2 C,2 | F,3 F, ^F,2 F,2 | %12
 G,6 G,2 | [C,C]3 [D,B,] [E,C]2 [C,C]2 | [F,C]2 [D,D]2 [E,^C]2 [F,D]2 | %15
 [G,EG]3 [G,EG][K:bass] [G,,G,B,F]2 [G,,G,]2 |[M:3/4] [C,C]6 |[M:1/4] z G, |[M:4/4] C3 G, E,3 C, | %19
 E,2 G,2[K:treble] C3 [G,B,F] | [C,C]2 z[K:treble] c[K:bass] D,2 D,2 | G,6 G,2 | %22
 [C,C]3 [D,B,] [E,C]2 [C,C]2 | [F,C]2 [D,D]2 [E,^C]2 [F,D]2 | %24
 [G,EG]3 [G,EG][K:bass] [G,,G,B,F]2 [G,,G,]2 |[M:7/4] [C,C]6 z2 z2 z4 |] %26
V:3
 x8 | x8 | x8 | x8 | G6 z2 | x8 | x8 | z4 z2 ^F2 | x8 | x8 | x8 | x8 | x8 | x8 | x8 | x8 | %16
[M:3/4] x6 |[M:1/4] x2 |[M:4/4] x8 | x8 | x8 | x8 | x8 | x8 | x8 |[M:7/4] x14 |] %26
V:4
 x8 | x8 | x4[K:bass] x4 | x8 | G,6 z2 | x8 | [F,C]2 z F C,2 A,,2 | x8 | x8 | x8 | z2 [C,C]2 z4 | %11
 x8 | x8 | x8 | x8 | x4[K:bass] x4 |[M:3/4] x6 |[M:1/4] x2 |[M:4/4] x8 | x4[K:treble] x4 | %20
 z2 A,,2[K:treble][K:bass] z4 | x8 | x8 | x8 | x4[K:bass] x4 |[M:7/4] x14 |] %26

